X: 1
T: BURNS' IRISH -- HORNPIPE
B: Ryan's Mammoth Collection of Fiddle Tunes
R: hornpipe
M: 2/4
L: 1/16
Z: Contributed 20000522200216 by John Chambers jchambers:casc.com
K: D
((3uABc) \
| dAFA BGEG | FAd"4"e d3A | cdef gfed | c"4"edB A3G |
| FAdf dAGF | edef gecA | dfaf bgec | d2d2d2 :|
|: uA2 \
| dfaf bagf | edef gecA | BcdB gfed | cedB A2(Bc) |
| dfdf dAGF | edef gecA | dfaf bgec | d2d2d2 :|
